!!!!SEGMENT: pl-wn--sd-xvi-qu-273--148_gomolka-mikolaj--duchy-prozne-smiertelnosci.krn
!!!cenid: 15xx:353
!!!COM: Gomółka, Mikołaj
!!!COM-rismid: pe30013343
!!!CDT: ~1535->1591/04/30
!!!CNT: Polish
!!!GTL: Melodiae na psalterz polski
!!!OTL: CXLVIII. Duchy prózne śmiertelności,
!!!ONB: PSAL: CXLVIII. Laudate dominum de caelis: laudate cum in excelſis.
!!!PDT: 1580
!!!AGN: Sacred
!!!SMS-siglum: PL-Wn
!!!SMS-shelfmark: SD XVI.Qu.273
!!!SMS-shelfwork: 149 G
!!!NIFC-rismid:
!!!ONB-nifc: Melodiae na psalterz polski
**kern	**text	**kern	**text	**kern	**text	**kern	**text
*part4	*part4	*part3	*part3	*part2	*part2	*part1	*part1
*staff4	*staff4	*staff3	*staff3	*staff2	*staff2	*staff1	*staff1
*clefC4	*	*clefC2	*	*clefC1	*	*clefG2	*
*k[b-]	*	*k[b-]	*	*k[b-]	*	*k[b-]	*
*F:	*	*F:	*	*F:	*	*F:	*
*M2/1	*	*M2/1	*	*M2/1	*	*M2/1	*
*met(C|)	*	*met(C|)	*	*met(C|)	*	*met(C|)	*
*I"BASSUS.	*	*I"TENOR.	*	*I"ALTUS.	*	*I"CANTUS.	*
=1-	=1	=1-	=1	=1-	=1	=1-	=1
1F/	DU-	1f\	DU-	1a\	DU-	1cc\	DU-
2F/	-chy	2f\	-chy	2a\	-chy	2cc\	-chy
2G/	pró-	2d/	pró-	4g\	pró-	2b-/	pró-
.	.	.	.	4f/	.	.	.
=2-	=2	=2-	=2	=2-	=2	=2-	=2
2A/	-ʒné	2c/	-ʒné	4e/	-ʒné	2a/	-ʒné
.	.	.	.	4f/	.	.	.
2.G/	śmier-	1d/	śmier-	4g\	śmier-	1dd\	śmier-
.	.	.	.	4a\	-tel-	.	.
.	.	.	.	2.b-\	-no-	.	.
4A/	-tel-	.	.	.	.	.	.
2B-\	-no-	2d/	-tel-	.	.	2dd\	-tel-
.	.	.	.	4a\	-śći,	.	.
=3-	=3	=3-	=3	=3-	=3	=3-	=3
1c\	-śći,	4e/	-no-	4g/	.	1cc\	-no-
.	.	2f\	-śći,	2a\	Day-	.	.
.	.	4e/	.	4g/	.	.	.
2F/	Day-	2f\	Day-	2a\	-ćie	2cc\	-śći,
2f\	-ćie	2a\	-ćie	2cc\	cʒećś	2ff\	Day-
=4-	=4	=4-	=4	=4-	=4	=4-	=4
1f\	cʒeść	1a\	cʒeść	1cc\	ná	1ff\	-ćie
1c\	ná	1g\	ná	2.cc\	wy-	1ee\	cʒeść
.	.	.	.	4b-\	.	.	.
=5-	=5	=5-	=5	=5-	=5	=5-	=5
2d\	wy-	2f\	wy-	2a\	-ſo-	2dd\	ná
1G/	-ſo-	1g\	-ſo-	1bnX\	.	1gg\	wy-
2G/	.	2g\	.	2b\	.	2gg\	-ſo-
=6-	=6	=6-	=6	=6-	=6	=6-	=6
!!LO:PB:g=original
1c\	.	1g\	-ko-	1cc\	-ko-	2.gg\	-ko-
.	.	.	.	.	.	4ff\	-śći
2c\	-ko-	2g\	-śći	2cc\	-śći	2ee\	Pá-
1f\	-śći	1a\	.	1cc\	Pá-	1ff\	-nu
=7-	=7	=7-	=7	=7-	=7	=7-	=7
.	.	.	.	.	.	.	.
2f\	Pá-	2a\	Pá-	2cc\	-nu	2ff\	ʒe
1B-\	-nu	1b-\	-nu	1dd\	ʒe	1ff\	wſʒech
=8-	=8	=8-	=8	=8-	=8	=8-	=8
2B-\	ʒe	2b-\	ʒe	2dd\	wſʒech	2ff\	.
2c\	wſʒech	2g\	wſʒech	2cc\	.	2ee\	na-
2d\	.	2f\	.	2a\	.	2dd\	-wyʒ̇-
2B-\	na-	2f\	na-	2b-y\	na-	2dd\	-ſʒe-
=9-	=9	=9-	=9	=9-	=9	=9-	=9
2c\	-wyʒ̇-	2e/	-wyʒ̇-	2g/	-wyʒ̇-	2cc\	-mu
1G/	-ſʒe-	1g\	-ſʒe-	1b-\	-ſʒe-	1dd\	Pá-
2.G/	-mu	2g\	-mu	2b-\	-mu	2dd\	-nu
=10-	=10	=10-	=10	=10-	=10	=10-	=10
.	.	2.d/	.	1b-\	Pá-	2dd\	nie
4A/	Pá-	.	.	.	.	.	.
2.B-\	-nu	.	.	.	.	2.dd\	wy-
.	.	4e/	Pá-	.	.	.	.
.	.	2.f\	-nu	2b-\	-nu	.	.
4A/	nie-	.	.	.	.	4cc\	.
4F/	-wy-	.	.	2.cc\	nie-	4a/	-chwa-
4G/	-chwa-	4e/	nie-	.	.	4b-/	-lo-
=11-	=11	=11-	=11	=11-	=11	=11-	=11
2.A/	-lo-	2.c/	-wy-	.	.	1cc\	-ne-
.	.	.	.	4b-\	-wy-	.	.
.	.	.	.	2a\	-chwa-	.	.
4B-\	-ne-	4d/	-chwa-	.	.	.	.
1c\	-mu.	4e/	-lo-	4g/	-lo-	1cc\	-mu.
.	.	2f\	-ne-	2a\	-ne-	.	.
.	.	4e/	-mu.	4g/	-mu.	.	.
=12-	=12	=12-	=12	=12-	=12	=12-	=12
*000/left	*	*	*	*	*	*	*
000F/	.	000f/	.	000a\	.	000cc\	.
==	==	==	==	==	==	==	==
*-	*-	*-	*-	*-	*-	*-	*-
!!!RDF**kern: l = terminal long
!!!system-decoration: s1,s2,s3,s4
!!!ENC: Marta Lawrence
!!!END: 2020-02-25
!!!URL-scan: https://polona.pl/item/melodiae-na-psalterz-polski,Nzk3MTM4ODQ/349 Scan on Polona
!!!IIIF: https://polona.pl/iiif/item/Nzk3MTM4ODQ/manifest.json
